X: 2134
T: GRANT LODGE
Q: "Strathspey."
R: Strathspey.
%R: strathspey
B: James Kerr "Merry Melodies" v.2 p.16 #134
Z: 2016 John Chambers <jc:trillian.mit.edu>
M: C
L: 1/8
K: G
ug |\
vG>uDG<B vA>uGA<B | vG>GG>uB d3ug |\
G>DG<B A>GA<B | e<ee>d e3 :|\
uf |\
g>ab<g d>ed<B |
g>ab<g e2(e>f) |\
[1 g>ab<g d>ed<B | A<AB>d e3 :|\
[2 g<b f<a ve>ufg<e | d<BB>G [A3D3] |]

%%sep 1 1 500
%%sep 1 1 500

